X: 412
T:Patricia Wilmot's Reel
M:C|
L:1/8
R:Reel
Z:Kevin Gow
K:G
G2 Bd cAFD | GBdf g2fg | ecAc dBGB | cAAB AFDF |!
G2 Bd cAFD | GBdf g2fg | ecAc dBGB |1cAFA G3D:|2cAFA G2 Bd||!
g2 dg bgag | e~c3 efge | d~B3 dBGB | cAAB AFDF|!
g2 dg bgag | e~c3 efge | d~B3 dBGB | cAGF G3z|!
g2 dg bgag | ecea g2 fe |d~B3 dBGB | cAAB AFDB,|!
C EC B,DGB| cdef g2 fg |ecAc dBGB |cAGF G3z||
<end>
<start>
